X:1
T:550 - Juventude
T:Letra: F. P. L.
T:MÃºsica: James McGranahan (1840-1907)
M:4/4
L:1/8
Q:1/4=100
K:Bb
V:1
"Bb"B,2 D2 F3F | ("Eb"GA) (Bc) "Bb"d2 B2 | "Eb"e3e "Bb"d3d | "F/C"c2 "C7"c2 "F"c2 z2 | "Bb"B,2 D2 F3F | ("Eb"GA) (Bc) "Bb"d2 B2 | "Eb"e3e "Bb"d2 (fe) | "Bb/F"d2 "F7"c2 "Bb"B3z || "Bb"z8 | z6 B3/c/ | d4- d3/B/ e3/d/ | "F"d2 c4 A3/B/ | c4- c3/e/ d3/c/ | "Bb"B4 z2 B3/c/ | d3d "Bb7"d2 f2 | "Eb"f2 e4 B3/c/ | "Bb/F"d3d "F7"c2 c2 | "Bb"B4 z2 A3/B/ | "F7"c4- c3/e/ d3/c/ | "Bb"B4 z2 c3/d/ | "F7"e4- e3/c/ d3/e/ | "Bb"d4 z2 B3/c/ | d3d "Bb7"d2 f2 | "Eb"f2 e4 B3/c/ | "Bb/F"d3d "F"c2 "(F7)"c2 | "Bb"B6 z2 |]
w: 1.~Le-van-tai-vos, mo_Ã§os_ cren-tes, Pa-raa-nun-ci-ar Je-sus Co-mo Sal-va-dor_ do_ mun-do, Ver-da-dei-ro_ gui-ae luz.     Des-per-tai_vos! Le-van-tai-vos!    NÃ£o hÃ¡ tem_po que per-der.    Se que-reis ser-vir a Cris-to,    Ten-des mui-to que fa-zer.    Me-di-tai_ no seu a-mor,    Me-di-tai_ no quee-le fez:    Pe-la mor-te no Cal-vÃ¡-rio,    Res-ga-tou-nos deu-ma vez!
w: 2.~Sim, e-leÃ© 'a luz_ do_ mun-do'! E-le po-de-rÃ¡ di-zer: 'SÃ³ eu dou a vi_dae_ter-na A qual-quer que_ quei-ra crer.'
w: 3.~Pois se nÃ³s es-ta_mos_ cer-tos De que Cris-toÃ© Sal-va-dor, Va-mos pu-bli-cÃ¡_loa_ to-dos Com co-ra-gem_ e fer-vor.
w: 4.~E se nÃ³s, sin-ce_ra_men-te, JÃ¡ ser-vi-mos nos-so Deus, E-xul-ta-mos na_ cer_te-za Deen-con-trÃ¡-lo_ lÃ¡ nos cÃ©us.
W: 
W:
W: 1. Levantai-vos, moÃ§os crentes,
W: Para anunciar Jesus
W: Como Salvador do mundo,
W: Verdadeiro guia e luz.
W: 
W:    (Estribilho)
W:    Despertai-vos! Levantai-vos!
W:    NÃ£o hÃ¡ tempo que perder.
W:    Se quereis servir a Cristo,
W:    Tendes muito que fazer.
W:    Meditai no seu amor,
W:    Meditai no que ele fez:
W:    Pela morte no CalvÃ¡rio,
W:    Resgatou-nos de uma vez!
W: 
W: 2. Sim, ele Ã© 'a luz do mundo'!
W: Ele poderÃ¡ dizer:
W: 'SÃ³ eu dou a vida eterna
W: A qualquer que queira crer.'
W: 
W: 
W: 
W: 3.Pois se nÃ³s estamos certos
W: De que Cristo Ã© Salvador,
W: Vamos publicÃ¡-lo a todos
W: Com coragem e fervor.
W: 
W: 4. E se nÃ³s, sinceramente,
W: JÃ¡ servimos nosso Deus,
W: Exultamos na certeza
W: De encontrÃ¡-lo lÃ¡ nos cÃ©us.
W: 
W: 

